z_dist/img/icons/crypto/tron-TRX.svg

<svg width="64" height="64" viewBox="0 0 64 64" fill="none" xmlns="http://www.w3.org/2000/svg">
<rect y="0.000488281" width="64" height="64" rx="4" fill="#FC070C"/>
<path fill-rule="evenodd" clip-rule="evenodd" d="M49.7258 20.2833L49.7257 20.2833L49.7257 20.2832C48.2437 18.8443 46.6777 17.3238 45.2956 16.0972L45.1556 15.9992C44.9227 15.8121 44.6601 15.6654 44.3786 15.5652L43.3123 15.3662C35.9528 13.993 12.0955 9.54149 11.6047 9.60118C11.4596 9.62151 11.3209 9.67413 11.1987 9.75518L11.0657 9.86018C10.902 10.0265 10.7776 10.2274 10.7017 10.4482L10.6667 10.5392V11.0362V11.1132C12.2864 15.6231 16.4937 25.6949 20.3786 34.9946L20.3786 34.9947L20.3787 34.9949L20.3787 34.995L20.3787 34.995C23.6631 42.8574 26.717 50.168 27.7817 53.099L27.7821 53.1002C27.9222 53.5346 28.1882 54.3591 28.6847 54.401H28.7967C29.0627 54.401 30.1967 52.903 30.1967 52.903C30.1967 52.903 50.4686 28.3191 52.5196 25.7011C52.7851 25.3786 53.0195 25.0318 53.2196 24.6651C53.3235 24.0816 53.1136 23.4864 52.6666 23.0971C51.7933 22.2908 50.7808 21.3077 49.7258 20.2833ZM35.3977 25.9601L44.0496 18.7852L49.1246 23.4611L35.3977 25.9601ZM17.1417 13.2832L32.0377 25.4911L41.2426 17.7282L17.1417 13.2832ZM33.3817 28.6901L48.6276 26.2331L31.1977 47.2331L33.3817 28.6901ZM30.7917 27.8011L15.1187 14.5012L28.5237 47.2471L30.7917 27.8011Z" fill="white"/>
</svg>

<svg width="64" height="64" fill="none" xmlns="http://www.w3.org/2000/svg"><rect width="64" height="64" rx="4" fill="#FC070C"/><path fill-rule="evenodd" clip-rule="evenodd" d="M49.726 20.283c-1.482-1.439-3.048-2.96-4.43-4.186l-.14-.098a2.67 2.67 0 00-.777-.434l-1.067-.199c-7.36-1.373-31.216-5.825-31.707-5.765a.98.98 0 00-.406.154l-.133.105a1.562 1.562 0 00-.364.588l-.035.091v.574c1.62 4.51 5.827 14.582 9.712 23.882 3.284 7.862 6.338 15.173 7.403 18.104v.001c.14.435.406 1.26.903 1.301h.112c.266 0 1.4-1.498 1.4-1.498S50.469 28.319 52.52 25.701c.265-.322.5-.67.7-1.036a1.687 1.687 0 00-.553-1.568c-.874-.806-1.886-1.79-2.941-2.814zM35.398 25.96l8.652-7.175 5.075 4.676-13.727 2.5zM17.142 13.283l14.896 12.208 9.205-7.763-24.101-4.445zm16.24 15.407l15.246-2.457-17.43 21 2.184-18.543zm-2.59-.889l-15.673-13.3 13.405 32.746 2.268-19.446z" fill="#fff"/></svg>
